X:1
T:Torrington (1807)
T:E minor            Alexander Gillet, 1807
T:Transcribed from The Hartford Collection of Sacred Harmony, 1807.
T:Isaac Watts, 1709 (Hymn 4, Book 2)       88. 88. (L. M.)
%%score [ 1 2 3 4 ]
L:1/8
Q:1/4=130
M:3/2
K:G
V:1 treble nm="Tr." snm="Tr."
V:2 treble nm="C." snm="C."
V:3 treble-8 nm="T." snm="T."
V:4 bass nm="B." snm="B."
V:1
"_1. Here at  thy  cross,  my       dy  –    ing         God,   I   lay    my  soul  be–neath thy love, Beneath the droppings of thy blood,  Jesus, nor shall  it         e'er  re   –   move.\n2. Not  all  that  ty  –   rants    think    or           say,  With rage and lightning in their eyes,  Nor hell shall fright my heart away,  Should hell with all its  le – gions     rise." B4 B4 B4 | %1
 B8 e4 | ^d8 (3(B2 c2 =d2) | e12 | e4 (g2 d2) B4 | d8 (e2 B2) | B8 (B2 c2) | B12 | B4 G4 d4 | %9
 d8 d4 | B8 c4 | B12 | B4 B4 d4 | e8 (d2 c2) | B8 B4 | B12 |] %16
V:2
"_3. Should worlds conspire to  drive     me   thence,  Moveless and firm this  heart  should lie; Resolved, for that's my last defense,  If I must pe–rish,   there   to        die." E4 E4 F4 | %1
 G8 (G2 E2) | F8 F4 | G12 | G4 G4 G4 | F8 E4 | E8 E4 | ^D12 | E4 G4 G4 | F8 F4 | G8 F4 | F12 | %12
 E4 E4 A4 | G8 (D2 E2) | ^D8 (E2 F2) | E12 |] %16
V:3
"_4. But speak, my Lord,  and   calm  my           fear;   Am  I not safe beneath thy shade?  Thy vengeance will not strike me here,  Nor Satan dares  my   soul  in    –   vade.\n5. Yes, I'm     se – cure   be – neath   thy         blood,   And  all  my  foes  shall  lose  their  aim:  Hosannah  to  my  dying  God,  And my best ho–nors  to     his       name." B4 B4 ^d4 | %1
 e8 (B2 AG) | F8 (G2 F2) | E12 | B4 (d2 B2) G4 | A8 (B2 G2) | E8 G4 | F12 | G4 G4 B4 | A8 A4 | %10
 G8 A4 | B12 | B4 e4 A4 | B8 (A2 G2) | F8 (E2 ^D2) | E12 |] %16
V:4
"___________________________________________________\nNot to be confused with the very different \nTorrington (1794)\n, \n   which is a revision of \nTurkey Hills\n published in Andrew\n   Law's Christian Harmony, 1794." E,4 E,4 B,,4 | %1
 E,8 E,4 | B,,8 B,,4 | E,12 | G,4 G,4 G,4 | D,8 E,4 | E,8 E,4 | B,,12 | E,4 E,4 G,4 | D,8 D,4 | %10
 E,8 F,4 | B,,12 | E,4 G,4 F,4 | E,8 (F,2 E,2) | B,,8 B,,4 | E,12 |] %16

